images/social/twitter.svg

<svg xmlns="http://www.w3.org/2000/svg" width="300" height="243.91" viewBox="0 0 300 243.91"><defs><style>.a{fill:#fff;}</style></defs><title>twitter</title><path class="a" d="M165.62,44.58A61,61,0,0,1,208,28c16.82-.22,33.34,7.23,44.83,19.42A129.52,129.52,0,0,0,292,32.34a64.67,64.67,0,0,1-27,34.19c12-1.61,24-4.58,35-9.87V57a127.82,127.82,0,0,1-30.7,31.89C272.18,151,239.9,214,186.78,246.75,158.3,264.47,124.43,272.68,91,271.89a172.4,172.4,0,0,1-64.09-13.43c-9.38-3.8-18.18-8.82-26.93-13.87v-.17c2.82.09,5.64.29,8.45.49,29.59,1.74,59.38-8,82.77-26.1A61.47,61.47,0,0,1,59,209.07a62.93,62.93,0,0,1-25.55-33.13,59.87,59.87,0,0,0,27.63-1A61.71,61.71,0,0,1,12,113.78a65.38,65.38,0,0,0,27.75,7.78C27.31,112.89,17.82,99.88,14.3,85.05a62.63,62.63,0,0,1,6.55-46c30.58,38.25,78,62.3,126.88,64.56A61.87,61.87,0,0,1,165.62,44.58Z" transform="translate(0 -28.03)"/></svg>

<?xml version="1.0" encoding="UTF-8" ?>
<!DOCTYPE svg PUBLIC "-//W3C//DTD SVG 1.1//EN" "http://www.w3.org/Graphics/SVG/1.1/DTD/svg11.dtd">
<svg width="300pt" height="300pt" viewBox="0 0 300 300" version="1.1" xmlns="http://www.w3.org/2000/svg">
<g>
<path fill="#fff" opacity="1.00" d=" M 165.62 44.58 C 176.95 33.95 192.41 27.75 207.97 28.04 C 224.79 27.82 241.31 35.27 252.80 47.46 C 266.60 44.60 279.89 39.48 292.05 32.34 C 287.26 46.42 277.69 58.73 265.00 66.53 C 277.03 64.92 289.03 61.95 300.00 56.66 L 300.00 57.00 C 291.79 69.36 281.23 80.09 269.30 88.89 C 272.18 151.03 239.90 214.01 186.78 246.75 C 158.30 264.47 124.43 272.68 91.02 271.89 C 69.06 271.61 47.18 266.93 26.93 258.46 C 17.55 254.66 8.75 249.64 0.00 244.59 L 0.00 244.42 C 2.82 244.51 5.64 244.71 8.45 244.91 C 38.04 246.65 67.83 236.88 91.22 218.81 C 79.85 218.63 68.56 215.24 59.01 209.07 C 46.97 201.43 37.96 189.43 33.46 175.94 C 42.58 177.62 52.16 177.56 61.09 174.93 C 46.78 171.95 33.63 163.76 24.77 152.12 C 16.33 141.26 11.83 127.52 12.00 113.78 C 20.54 118.40 30.06 121.07 39.75 121.56 C 27.31 112.89 17.82 99.88 14.30 85.05 C 10.39 69.61 12.96 52.84 20.85 39.05 C 51.43 77.30 98.83 101.35 147.73 103.61 C 142.65 82.58 149.69 59.23 165.62 44.58 Z" />
</g>
</svg>
